render/icons/default.svg

<svg xmlns="http://www.w3.org/2000/svg" width="40" height="40" fill="none">
  <path fill="#F6F8FA" d="M0 8a8 8 0 0 1 8-8h24a8 8 0 0 1 8 8v24a8 8 0 0 1-8 8H8a8 8 0 0 1-8-8V8Z"/>
  <path fill="#6A6CC6" d="m14 24.96 1.52-1.52v2.16l-1.76 1.68-1.28-.56v-3.76h-2.24l-.72-.72v-12l.72-.72h18l.8.72v6.72h-1.52v-6H11.04v10.56h2.24l.72.72v2.72Zm9.44 2.56 2.8 2.72 1.28-.48v-2.24h2.24l.72-.8v-7.44l-.72-.8h-12l-.72.8v7.44l.72.8h5.68Zm.32-1.52h-5.28v-6h10.56v6h-2.32l-.72.72v1.2l-1.76-1.68-.48-.24Z"/>
</svg>

<svg width="40" height="40" viewBox="0 0 40 40" fill="none" xmlns="http://www.w3.org/2000/svg">
<path d="M0 8C0 3.58172 3.58172 0 8 0H32C36.4183 0 40 3.58172 40 8V32C40 36.4183 36.4183 40 32 40H8C3.58172 40 0 36.4183 0 32V8Z" fill="#F6F8FA"/>
<path d="M14 24.96L15.52 23.44V25.6L13.76 27.28L12.48 26.72V22.96H10.24L9.52 22.24V10.24L10.24 9.52H28.24L29.04 10.24V16.96H27.52V10.96H11.04V21.52H13.28L14 22.24V24.96ZM23.44 27.52L26.24 30.24L27.52 29.76V27.52H29.76L30.48 26.72V19.28L29.76 18.48H17.76L17.04 19.28V26.72L17.76 27.52H23.44ZM23.76 26H18.48V20H29.04V26H26.72L26 26.72V27.92L24.24 26.24L23.76 26Z" fill="#6A6CC6"/>
</svg>
